X:1
T:Title
%%score { ( 1 4 ) | ( 2 3 ) }
L:1/8
M:2/4
K:Db
V:1 treble nm="Grand Piano"
V:4 treble 
V:2 bass 
V:3 bass 
V:1
 z2[Q:1/4=84] [FA]>G | FF [EG][EG] | [FA]>[EG] FA | BA B[Gc] |[M:3/8] [Fd]3 |[M:1/8] [Fd] | %6
[M:2/4] [Ge]>[Fd] [Ec][DGB] | [GB][FA] [FA][Fd] | c>B cB |[M:3/8] [CEA]3 |[M:1/8] [A,EG] | %11
[M:2/4] [A,DF][A,DF] [A,EG][A,EG] | [FA]>[EG] FF | GF GA |[M:3/8] B3 |[M:1/8] [Gc] | %16
[M:2/4] [Fd][Fd] [Ae][Ae] |[M:9/16] [Af]>[Ge][Fd]-[Fd]/[Ad] |[M:2/4] ee dc/-[Gc]/ |[M:3/8] [Fd]3 |] %20
V:2
 z2 z z/ E/ | [D,A,D][D,A,D] [D,A,][D,A,] | [D,D]>[D,A,] [D,A,D][F,D] | [G,D][F,D] [G,DG][E,A,] | %4
[M:3/8] [D,A,]3 |[M:1/8] [D,A,] |[M:2/4] [A,,A,]>[A,,A,] [A,,A,]A,, | [D,D][D,D] [D,D][D,A,] | %8
 [E,A,E]>[E,A,E] [E,A,E][E,DE] |[M:3/8] A,,3 |[M:1/8] A,, |[M:2/4] D,D, D,D, | %12
 [D,D]>[D,D] [D,A,D][D,A,D] | [E,A,C][D,A,D] [E,A,C][F,D] |[M:3/8] [G,D]3 |[M:1/8] [E,A,] | %16
[M:2/4] [D,A,][D,A,] [A,C][A,C] |[M:9/16] [D,D]>[D,D][D,D]-[D,D]/[F,D] | %18
[M:2/4][K:treble] [G,B,G][G,B,G] [A,F][K:bass][A,,A,] |[M:3/8] [D,A,]3 |] %20
V:3
 z2 [D,A,]2 | x4 | x4 | x4 |[M:3/8] x3 |[M:1/8] x |[M:2/4] x4 | x4 | x4 |[M:3/8] x3 |[M:1/8] x | %11
[M:2/4] x4 | x4 | x4 |[M:3/8] x3 |[M:1/8] x |[M:2/4] x4 |[M:9/16] x9/2 | %18
[M:2/4][K:treble] x3[K:bass] x |[M:3/8] x3 |] %20
V:4
 x4 | x4 | x4 | x4 |[M:3/8] x3 |[M:1/8] x |[M:2/4] x4 | x4 | x4 |[M:3/8] x3 |[M:1/8] x | %11
[M:2/4] x4 | x4 | x4 |[M:3/8] x3 |[M:1/8] x |[M:2/4] x4 |[M:9/16] x9/2 |[M:2/4] z2 z .E | %19
[M:3/8] x3 |] %20

